X: 12170
T: Exile Of Erin, The
R: reel
M: 4/4
K: Dmixolydian
FGAG FD~D2|FGAG FDc2|de=fe dcAG|FGAB cAGA|
FGAG FD~D2|FGAG FD~D2|A3B cGAc|GAcd ecdc:|
|:d2ed cAGc|A2 GA FAEA|d2ed ^cdef|g2g2 fgfe|
d2ed cAGc|A2 GA FAEA|D2FA c3B|cAGE EDD2:|

